Numix/16/status/indicator-keyboard-Is-5.svg

<?xml version="1.0" encoding="UTF-8" standalone="no"?>
<svg
   xmlns:dc="http://purl.org/dc/elements/1.1/"
   xmlns:cc="http://creativecommons.org/ns#"
   xmlns:rdf="http://www.w3.org/1999/02/22-rdf-syntax-ns#"
   xmlns:svg="http://www.w3.org/2000/svg"
   xmlns="http://www.w3.org/2000/svg"
   xmlns:sodipodi="http://sodipodi.sourceforge.net/DTD/sodipodi-0.dtd"
   xmlns:inkscape="http://www.inkscape.org/namespaces/inkscape"
   viewBox="0 0 16 16"
   id="svg2"
   version="1.1"
   inkscape:version="0.91 r13725"
   sodipodi:docname="indicator-keyboard-Is-5.svg">
  <metadata
     id="metadata14">
    <rdf:RDF>
      <cc:Work
         rdf:about="">
        <dc:format>image/svg+xml</dc:format>
        <dc:type
           rdf:resource="http://purl.org/dc/dcmitype/StillImage" />
      </cc:Work>
    </rdf:RDF>
  </metadata>
  <defs
     id="defs12" />
  <sodipodi:namedview
     pagecolor="#ffffff"
     bordercolor="#666666"
     borderopacity="1"
     objecttolerance="10"
     gridtolerance="10"
     guidetolerance="10"
     inkscape:pageopacity="0"
     inkscape:pageshadow="2"
     inkscape:window-width="640"
     inkscape:window-height="480"
     id="namedview10"
     showgrid="false"
     inkscape:zoom="14.75"
     inkscape:cx="8"
     inkscape:cy="8"
     inkscape:window-x="65"
     inkscape:window-y="24"
     inkscape:window-maximized="0"
     inkscape:current-layer="svg2" />
  <path
     style="fill:#ececec;fill-opacity:1"
     d="M 1.5996094 0 C 0.71320937 2.9605947e-16 0 0.71320937 0 1.5996094 L 0 14.400391 C 2.9605947e-16 15.286791 0.71320937 16 1.5996094 16 L 14.400391 16 C 15.286791 16 16 15.286791 16 14.400391 L 16 1.5996094 C 16 0.71320937 15.286791 0 14.400391 0 L 1.5996094 0 z M 3.9511719 4.859375 L 4.5625 4.859375 L 4.5625 11.095703 L 3.9511719 11.095703 L 3.9511719 4.859375 z M 7.4082031 6.3359375 C 7.7262031 6.3359375 7.9874062 6.3620156 8.1914062 6.4160156 C 8.4014062 6.4700156 8.5468594 6.5185469 8.6308594 6.5605469 L 8.4960938 7.0820312 C 8.4240938 7.0460313 8.3009531 6.9975 8.1269531 6.9375 C 7.9589531 6.8775 7.7108594 6.8476562 7.3808594 6.8476562 C 7.2488594 6.8476562 7.1219531 6.8625781 7.0019531 6.8925781 C 6.8879531 6.9165781 6.7872656 6.9595312 6.6972656 7.0195312 C 6.6072656 7.0735313 6.5344688 7.144375 6.4804688 7.234375 C 6.4264687 7.318375 6.4003906 7.4247812 6.4003906 7.5507812 C 6.4003906 7.6767812 6.4227031 7.7830469 6.4707031 7.8730469 C 6.5187031 7.9630469 6.5877344 8.0451875 6.6777344 8.1171875 C 6.7737344 8.1831875 6.8894844 8.2466406 7.0214844 8.3066406 C 7.1594844 8.3666406 7.3142812 8.4319062 7.4882812 8.5039062 C 7.6682813 8.5759063 7.8399531 8.6505156 8.0019531 8.7285156 C 8.1699531 8.8005156 8.3173594 8.8900469 8.4433594 8.9980469 C 8.5693594 9.1000469 8.6700469 9.2269531 8.7480469 9.3769531 C 8.8260469 9.5209531 8.8652344 9.7037813 8.8652344 9.9257812 C 8.8652344 10.345781 8.7066719 10.664859 8.3886719 10.880859 C 8.0766719 11.096859 7.6475625 11.203125 7.1015625 11.203125 C 6.6935625 11.203125 6.3820156 11.167703 6.1660156 11.095703 C 5.9500156 11.029703 5.806375 10.979359 5.734375 10.943359 L 5.8867188 10.412109 C 5.9047187 10.424109 5.9439063 10.444609 6.0039062 10.474609 C 6.0639063 10.498609 6.1440937 10.528453 6.2460938 10.564453 C 6.3480937 10.594453 6.4694219 10.622484 6.6074219 10.646484 C 6.7514219 10.670484 6.9155625 10.681641 7.1015625 10.681641 C 7.4375625 10.681641 7.7136875 10.627531 7.9296875 10.519531 C 8.1516875 10.405531 8.2617187 10.217125 8.2617188 9.953125 C 8.2617188 9.827125 8.2412188 9.7189063 8.1992188 9.6289062 C 8.1632188 9.5389063 8.0997656 9.4587187 8.0097656 9.3867188 C 7.9197656 9.3147187 7.8003906 9.2456875 7.6503906 9.1796875 C 7.5063906 9.1136875 7.3273281 9.0353125 7.1113281 8.9453125 C 6.9373281 8.8733125 6.7712344 8.8005156 6.6152344 8.7285156 C 6.4592344 8.6505156 6.3211719 8.56475 6.2011719 8.46875 C 6.0811719 8.36675 5.9860625 8.2454219 5.9140625 8.1074219 C 5.8420625 7.9694219 5.8046875 7.8015156 5.8046875 7.6035156 C 5.8046875 7.2255156 5.9465156 6.9195469 6.2285156 6.6855469 C 6.5165156 6.4515469 6.9102031 6.3359375 7.4082031 6.3359375 z M 10.083984 8.8417969 L 11.908203 8.8417969 L 11.908203 9.1757812 L 10.416016 9.1757812 C 10.412082 9.2498812 10.406204 9.3458906 10.398438 9.4628906 C 10.390637 9.5798906 10.3828 9.6994187 10.375 9.8242188 C 10.3672 9.9451188 10.357403 10.062681 10.345703 10.175781 C 10.334003 10.288881 10.324206 10.379012 10.316406 10.445312 C 10.616706 10.453112 10.877303 10.490341 11.095703 10.556641 C 11.314103 10.622941 11.492413 10.711119 11.632812 10.824219 C 11.773212 10.937319 11.877059 11.074475 11.943359 11.234375 C 12.013559 11.394275 12.048828 11.572578 12.048828 11.767578 C 12.048828 11.939178 12.019438 12.097894 11.960938 12.246094 C 11.906338 12.394294 11.820125 12.523613 11.703125 12.632812 C 11.586125 12.742012 11.439166 12.828225 11.259766 12.890625 C 11.080366 12.953025 10.866794 12.984375 10.621094 12.984375 C 10.496294 12.984375 10.378731 12.974578 10.269531 12.955078 C 10.164231 12.939478 10.070176 12.919884 9.984375 12.896484 C 9.9024751 12.873084 9.8319375 12.849572 9.7734375 12.826172 C 9.7149375 12.802772 9.6718312 12.783178 9.6445312 12.767578 L 9.7441406 12.427734 C 9.7675406 12.443334 9.8067281 12.462928 9.8613281 12.486328 C 9.9198281 12.509728 9.9864464 12.533241 10.060547 12.556641 C 10.138547 12.576141 10.222806 12.593775 10.316406 12.609375 C 10.413906 12.624975 10.515794 12.632812 10.621094 12.632812 C 10.816094 12.632812 10.978722 12.611259 11.107422 12.568359 C 11.240022 12.521559 11.343875 12.458859 11.421875 12.380859 C 11.499875 12.302859 11.554738 12.212728 11.585938 12.111328 C 11.621037 12.006028 11.638672 11.894337 11.638672 11.773438 C 11.638672 11.617437 11.6132 11.476362 11.5625 11.351562 C 11.5118 11.226762 11.423622 11.120956 11.294922 11.035156 C 11.166222 10.949356 10.991838 10.884697 10.773438 10.841797 C 10.555037 10.794997 10.27876 10.771484 9.9433594 10.771484 C 9.9667594 10.572584 9.9863531 10.392316 10.001953 10.228516 C 10.017553 10.060816 10.031269 9.9001469 10.042969 9.7480469 C 10.054669 9.5920469 10.062506 9.4431281 10.066406 9.2988281 C 10.074206 9.1506281 10.080084 8.9977969 10.083984 8.8417969 z "
     id="path4" />
</svg>

<svg xmlns="http://www.w3.org/2000/svg" viewBox="0 0 16 16">
 <path d="m 1.6 0 c -0.886 0 -1.6 0.713 -1.6 1.6 l 0 12.801 c 0 0.886 0.713 1.6 1.6 1.6 l 12.801 0 c 0.886 0 1.6 -0.713 1.6 -1.6 l 0 -12.801 c 0 -0.886 -0.713 -1.6 -1.6 -1.6 l -12.801 0 z m 2.352 4.859 l 0.611 0 l 0 6.236 l -0.611 0 l 0 -6.236 z m 3.457 1.477 c 0.318 0 0.579 0.026 0.783 0.08 c 0.21 0.054 0.355 0.103 0.439 0.145 l -0.135 0.521 c -0.072 -0.036 -0.195 -0.085 -0.369 -0.145 c -0.168 -0.06 -0.416 -0.09 -0.746 -0.09 c -0.132 0 -0.259 0.015 -0.379 0.045 c -0.114 0.024 -0.215 0.067 -0.305 0.127 c -0.09 0.054 -0.163 0.125 -0.217 0.215 c -0.054 0.084 -0.08 0.19 -0.08 0.316 c 0 0.126 0.022 0.232 0.07 0.322 c 0.048 0.09 0.117 0.172 0.207 0.244 c 0.096 0.066 0.212 0.129 0.344 0.189 c 0.138 0.06 0.293 0.125 0.467 0.197 c 0.18 0.072 0.352 0.147 0.514 0.225 c 0.168 0.072 0.315 0.162 0.441 0.27 c 0.126 0.102 0.227 0.229 0.305 0.379 c 0.078 0.144 0.117 0.327 0.117 0.549 c 0 0.42 -0.159 0.739 -0.477 0.955 c -0.312 0.216 -0.741 0.322 -1.287 0.322 c -0.408 0 -0.72 -0.035 -0.936 -0.107 c -0.216 -0.066 -0.36 -0.116 -0.432 -0.152 l 0.152 -0.531 c 0.018 0.012 0.057 0.033 0.117 0.063 c 0.06 0.024 0.14 0.054 0.242 0.09 c 0.102 0.03 0.223 0.058 0.361 0.082 c 0.144 0.024 0.308 0.035 0.494 0.035 c 0.336 0 0.612 -0.054 0.828 -0.162 c 0.222 -0.114 0.332 -0.302 0.332 -0.566 c 0 -0.126 -0.021 -0.234 -0.063 -0.324 c -0.036 -0.09 -0.099 -0.17 -0.189 -0.242 c -0.09 -0.072 -0.209 -0.141 -0.359 -0.207 c -0.144 -0.066 -0.323 -0.144 -0.539 -0.234 c -0.174 -0.072 -0.34 -0.145 -0.496 -0.217 c -0.156 -0.078 -0.294 -0.164 -0.414 -0.26 c -0.12 -0.102 -0.215 -0.223 -0.287 -0.361 c -0.072 -0.138 -0.109 -0.306 -0.109 -0.504 c 0 -0.378 0.142 -0.684 0.424 -0.918 c 0.288 -0.234 0.682 -0.35 1.18 -0.35 z m 2.676 2.506 l 1.824 0 l 0 0.334 l -1.492 0 c -0.004 0.074 -0.01 0.17 -0.018 0.287 c -0.008 0.117 -0.016 0.237 -0.023 0.361 c -0.008 0.121 -0.018 0.238 -0.029 0.352 c -0.012 0.113 -0.021 0.203 -0.029 0.27 c 0.3 0.008 0.561 0.045 0.779 0.111 c 0.218 0.066 0.397 0.154 0.537 0.268 c 0.14 0.113 0.244 0.25 0.311 0.41 c 0.07 0.16 0.105 0.338 0.105 0.533 c 0 0.172 -0.029 0.33 -0.088 0.479 c -0.055 0.148 -0.141 0.278 -0.258 0.387 c -0.117 0.109 -0.264 0.195 -0.443 0.258 c -0.179 0.062 -0.393 0.094 -0.639 0.094 c -0.125 0 -0.242 -0.01 -0.352 -0.029 c -0.105 -0.016 -0.199 -0.035 -0.285 -0.059 c -0.082 -0.023 -0.152 -0.047 -0.211 -0.07 c -0.059 -0.023 -0.102 -0.043 -0.129 -0.059 l 0.1 -0.34 c 0.023 0.016 0.063 0.035 0.117 0.059 c 0.059 0.023 0.125 0.047 0.199 0.07 c 0.078 0.019 0.162 0.037 0.256 0.053 c 0.098 0.016 0.199 0.023 0.305 0.023 c 0.195 0 0.358 -0.022 0.486 -0.064 c 0.133 -0.047 0.236 -0.109 0.314 -0.188 c 0.078 -0.078 0.133 -0.168 0.164 -0.27 c 0.035 -0.105 0.053 -0.217 0.053 -0.338 c 0 -0.156 -0.025 -0.297 -0.076 -0.422 c -0.051 -0.125 -0.139 -0.231 -0.268 -0.316 c -0.129 -0.086 -0.303 -0.15 -0.521 -0.193 c -0.218 -0.047 -0.495 -0.07 -0.83 -0.07 c 0.023 -0.199 0.043 -0.379 0.059 -0.543 c 0.016 -0.168 0.029 -0.328 0.041 -0.48 c 0.012 -0.156 0.02 -0.305 0.023 -0.449 c 0.008 -0.148 0.014 -0.301 0.018 -0.457 z" style="fill:#ececec;fill-opacity:1"/>
</svg>
